16x16/actions/show-node-handles.svg

<svg xmlns="http://www.w3.org/2000/svg" viewBox="0 0 16 16"><path style="fill:currentColor;fill-opacity:1;stroke:none;color:#5d656b" d="M11 2v1a8 8 0 0 0-8 8h1a7 7 0 0 1 7-7v1h3V2h-3zm1 1h1v1h-1V3z"/><path style="fill:currentColor;fill-opacity:1;stroke:none;color:#3daee9" d="M3.5 2A1.5 1.5 0 0 0 2 3.5a1.5 1.5 0 0 0 1 1.412V7h1V4.912A1.5 1.5 0 0 0 5 3.5 1.5 1.5 0 0 0 3.5 2zm0 1a.5.5 0 0 1 .5.5.5.5 0 0 1-.5.5.5.5 0 0 1-.5-.5.5.5 0 0 1 .5-.5zM3 8v1h1V8H3zm0 2v1H2v3h3v-3H4v-1H3zm0 2h1v1H3v-1z"/></svg>

<svg xmlns="http://www.w3.org/2000/svg" viewBox="0 0 16 16">
  <defs id="defs3051">
    <style type="text/css" id="current-color-scheme">
      .ColorScheme-Text {
        color:#5d656b;
      }
      .ColorScheme-Highlight {
        color:#3daee9;
      }
      </style>
  </defs>
  <path 
        style="fill:currentColor;fill-opacity:1;stroke:none"
        d="M 11 2 L 11 3 A 8 8 0 0 0 3 11 L 4 11 A 7 7 0 0 1 11 4 L 11 5 L 14 5 L 14 2 L 11 2 z M 12 3 L 13 3 L 13 4 L 12 4 L 12 3 z "
        class="ColorScheme-Text"
        />
  <path
        style="fill:currentColor;fill-opacity:1;stroke:none"
        d="M 3.5 2 A 1.5 1.500015 0 0 0 2 3.5 A 1.5 1.500015 0 0 0 3 4.9121094 L 3 7 L 4 7 L 4 4.9121094 A 1.5 1.500015 0 0 0 5 3.5 A 1.5 1.500015 0 0 0 3.5 2 z M 3.5 3 A 0.5 0.5 0 0 1 4 3.5 A 0.5 0.5 0 0 1 3.5 4 A 0.5 0.5 0 0 1 3 3.5 A 0.5 0.5 0 0 1 3.5 3 z M 3 8 L 3 9 L 4 9 L 4 8 L 3 8 z M 3 10 L 3 11 L 2 11 L 2 14 L 5 14 L 5 11 L 4 11 L 4 10 L 3 10 z M 3 12 L 4 12 L 4 13 L 3 13 L 3 12 z "
        class="ColorScheme-Highlight"
      />
</svg>
